X:1
T:Title
%%score ( 1 2 3 ) ( 4 5 )
L:1/8
Q:1/4=112
M:3/4
K:Ab
V:1 treble nm="Midi_20"
V:2 treble 
V:3 treble 
V:4 bass nm="Midi_20"
V:5 bass 
V:1
"^Beatitudo (C.M.)""^John Bacchus Dykes\n(1823-76)""^Isaac Watts\n(1674-1748)""^There is a land of pure delight" A2 B2 c2 | %1
 e4 c2 | A4 d2 | c6 | F2 G2 A2 | c4 B2 | B6 ||[M:3/4] B2 e2 d2 | c4 A2 | c4 B2 | A4 B2 | c4 c2 | %12
 d4 G2 | A6 |] %14
V:2
 x6 | x6 | x6 | x6 | x6 | A4 A2 | G6 ||[M:3/4] E2 E2 E2 | x6 | x6 | x6 | x6 | x6 | x6 |] %14
V:3
 C2 E2 E2 | E4 E2 | (D2 C2) F2 | E6 | E2 E2 E2 | =D4 D2 | E6 ||[M:3/4] G2 A2 B2 | E4 F2 | =E4 E2 | %10
w: There is a|land of|pure * de-|light,|Where saints im-|mor- tal|reign;|In- fin- ite|day ex-|cludes the|
w: There e- ver-|last- ing|spring * a-|bides,|And ne- ver-|with'- ring|flowers:|Death, like a|nar- row|sea, di-|
w: ~Sweet fields be-|yond the|swell\- * ing|flood|Stand dressed in|liv- ing|green;|So to the|Jews old|Ca- naan|
w: But timor- ous|mor- tals|start * and|shrink|To cross this|nar- row|sea,|And lin- ger,|shiv'- ring|on the|
w: O could we|make our|doubts * re-|move,|Those gloom- y|fears that|rise,|And see the|Ca- naan|that we|
w: ~Could we but|climb where|Mo\- * ses|stood,|And view the|land- scape|o'er,|Not Jor- dan's|stream, nor|death's cold|
 F4 F2 | E4 _G2 | =G4 E2 | E6 |] %14
w: night, And|plea- sures|ban- ish|pain;|
w: vides This|heaven- ly|land from|ours.|
w: stood, While|Jor- dan|rolled be-|tween.|
w: brink, And|fear to|launch a-|way.|
w: love, With|un- be-|cloud- ed|eyes;|
w: flood, Should|fright us|from that|shore.|
V:4
 E2 D2 C2 | A,4 A,2 | A,4 A,2 | A,6 | C2 C2 C2 | A,4 F,2 | G,6 ||[M:3/4] D2 C2 B,2 | A,4 A,2 | %9
 G,4 G,2 | A,4 A,2 | A,4 =A,2 | B,4 D2 | C6 |] %14
V:5
 A,2 A,2 A,2 | C,4 E,2 | F,2 E,2 D,2 | A,,6 | A,2 G,2 F,2 | B,,4 B,,2 | E,6 ||[M:3/4] E,2 F,2 G,2 | %8
 A,4 F,2 | C,4 C,2 | F,4 D,2 | E,4 E,2 | E,4 E,2 | A,,6 |] %14

